svg/fluentui-system-icons/ic_fluent_person_20_regular.svg

<svg width="20" height="20" viewBox="0 0 20 20" fill="none" xmlns="http://www.w3.org/2000/svg">
<path d="M10 2C7.79086 2 6 3.79086 6 6C6 8.20914 7.79086 10 10 10C12.2091 10 14 8.20914 14 6C14 3.79086 12.2091 2 10 2ZM7 6C7 4.34315 8.34315 3 10 3C11.6569 3 13 4.34315 13 6C13 7.65685 11.6569 9 10 9C8.34315 9 7 7.65685 7 6ZM5.00873 11C3.90315 11 3 11.8869 3 13C3 14.6912 3.83281 15.9663 5.13499 16.7966C6.41697 17.614 8.14526 18 10 18C11.8547 18 13.583 17.614 14.865 16.7966C16.1672 15.9663 17 14.6912 17 13C17 11.8956 16.1045 11 15 11L5.00873 11ZM4 13C4 12.4467 4.44786 12 5.00873 12L15 12C15.5522 12 16 12.4478 16 13C16 14.3088 15.3777 15.2837 14.3274 15.9534C13.2568 16.636 11.7351 17 10 17C8.26489 17 6.74318 16.636 5.67262 15.9534C4.62226 15.2837 4 14.3088 4 13Z" fill="#212121"/>
</svg>

<svg xmlns="http://www.w3.org/2000/svg" width="20" height="20"><path d="M10 2a4 4 0 1 0 0 8 4 4 0 0 0 0-8ZM7 6a3 3 0 1 1 6 0 3 3 0 0 1-6 0Zm-1.991 5A2.001 2.001 0 0 0 3 13c0 1.691.833 2.966 2.135 3.797C6.417 17.614 8.145 18 10 18c1.855 0 3.583-.386 4.865-1.203C16.167 15.967 17 14.69 17 13a2 2 0 0 0-2-2H5.009ZM4 13c0-.553.448-1 1.009-1H15a1 1 0 0 1 1 1c0 1.309-.622 2.284-1.673 2.953C13.257 16.636 11.735 17 10 17c-1.735 0-3.257-.364-4.327-1.047C4.623 15.283 4 14.31 4 13Z"/></svg>
